X: 17
T: Gulljenta
C: Sven Nyhus
O: Rros, Norge
Z: Transcribed to abc by Jon Magnusson 080411
R: Rrospols
N: Norge
M: 3/4
L: 1/8
K: Am
|:E2 A>c (3e^f^g|(3 a2e2c2 A2|d>^c d>e (3 fdf|(3:2:4 e2c2ec A>A|B>B e2 e>B|
c>c (3 Bdc A>c|e>c e>a (3 ^g^fg|[1 (3 ba^g a4:|[2 (3 ba^g a3 ^g|]
K:E
|:(3:2:4 b2bge2 B>e|g>g (3 fag e>B|G>E G>B e>e|(3:2:4 d2c2Ac B>B|
(3:2:4 f2fdB2 d>f|(3:2:4 e2c2Ac B>A|(3:2:4 G2Beg2 b>g|[1 (3afd e3 g:|[2 (3afd e4|]
